X:411
M:C|
L:1/8
K:C
e|gagf ecce|gdec BGGB|gagf ecce|gdge c/c/c ce|gagf ecce|fdec BGGB|
cGAF EFGf|ecde c/c/c c||

